static/img/kroki/ce1479d35d5dac3fc206e0a4e3e74b99.svg

<?xml version="1.0" encoding="us-ascii" standalone="no"?><svg xmlns="http://www.w3.org/2000/svg" xmlns:xlink="http://www.w3.org/1999/xlink" contentStyleType="text/css" height="793px" preserveAspectRatio="none" style="width:525px;height:793px;" version="1.1" viewBox="0 0 525 793" width="525px" zoomAndPan="magnify"><defs/><g><!--class aws_cloudfront_origin_access_control--><g id="elem_aws_cloudfront_origin_access_control"><rect codeLine="22" fill="#3D176E" height="152.9766" id="aws_cloudfront_origin_access_control" rx="2.5" ry="2.5" style="stroke:#000D19;stroke-width:0.5;" width="511" x="7" y="633.84"/><ellipse cx="97.25" cy="653.7345" fill="#ADD1B2" rx="11" ry="11" style="stroke:#181818;stroke-width:1.0;"/><path d="M100.2188,659.3752 Q99.6406,659.672 99,659.8127 Q98.3594,659.9689 97.6563,659.9689 Q95.1563,659.9689 93.8281,658.3283 Q92.5156,656.672 92.5156,653.547 Q92.5156,650.422 93.8281,648.7658 Q95.1563,647.1095 97.6563,647.1095 Q98.3594,647.1095 99,647.2658 Q99.6563,647.422 100.2188,647.7189 L100.2188,650.4377 Q99.5938,649.8595 99,649.5939 Q98.4063,649.3127 97.7813,649.3127 Q96.4375,649.3127 95.75,650.3908 Q95.0625,651.4533 95.0625,653.547 Q95.0625,655.6408 95.75,656.7189 Q96.4375,657.7814 97.7813,657.7814 Q98.4063,657.7814 99,657.5158 Q99.5938,657.2345 100.2188,656.6564 L100.2188,659.3752 Z " fill="#000000"/><text fill="#D9B8FF" font-family="Helvetica" font-size="17" lengthAdjust="spacing" textLength="312" x="122.75" y="659.6198">aws_cloudfront_origin_access_control</text><line style="stroke:#000D19;stroke-width:0.5;" x1="8" x2="517" y1="673.6291" y2="673.6291"/><text fill="#D9B8FF" font-family="sans-serif" font-size="14" font-weight="bold" lengthAdjust="spacing" textLength="266" x="18" y="695.6242">origin_access_control_description</text><text fill="#D9B8FF" font-family="sans-serif" font-size="14" lengthAdjust="spacing" textLength="48" x="284" y="695.6242">: string</text><text fill="#D9B8FF" font-family="sans-serif" font-size="14" font-weight="bold" lengthAdjust="spacing" textLength="441" x="18" y="721.9211">origin_access_control_origin_access_control_origin_type</text><text fill="#D9B8FF" font-family="sans-serif" font-size="14" lengthAdjust="spacing" textLength="48" x="459" y="721.9211">: string</text><text fill="#D9B8FF" font-family="sans-serif" font-size="14" font-weight="bold" lengthAdjust="spacing" textLength="310" x="18" y="748.2179">origin_access_control_signing_behavior</text><text fill="#D9B8FF" font-family="sans-serif" font-size="14" lengthAdjust="spacing" textLength="48" x="328" y="748.2179">: string</text><text fill="#D9B8FF" font-family="sans-serif" font-size="14" font-weight="bold" lengthAdjust="spacing" textLength="307" x="18" y="774.5148">origin_access_control_signing_protocol</text><text fill="#D9B8FF" font-family="sans-serif" font-size="14" lengthAdjust="spacing" textLength="48" x="325" y="774.5148">: string</text></g><!--class aws_resource--><g id="elem_aws_resource"><rect codeLine="28" fill="#3D176E" height="74.0859" id="aws_resource" rx="2.5" ry="2.5" style="stroke:#000D19;stroke-width:0.5;" width="155" x="185" y="438.76"/><ellipse cx="200" cy="458.6545" fill="#ADD1B2" rx="11" ry="11" style="stroke:#181818;stroke-width:1.0;"/><path d="M202.9688,464.2952 Q202.3906,464.592 201.75,464.7327 Q201.1094,464.8889 200.4063,464.8889 Q197.9063,464.8889 196.5781,463.2483 Q195.2656,461.592 195.2656,458.467 Q195.2656,455.342 196.5781,453.6858 Q197.9063,452.0295 200.4063,452.0295 Q201.1094,452.0295 201.75,452.1858 Q202.4063,452.342 202.9688,452.6389 L202.9688,455.3577 Q202.3438,454.7795 201.75,454.5139 Q201.1563,454.2327 200.5313,454.2327 Q199.1875,454.2327 198.5,455.3108 Q197.8125,456.3733 197.8125,458.467 Q197.8125,460.5608 198.5,461.6389 Q199.1875,462.7014 200.5313,462.7014 Q201.1563,462.7014 201.75,462.4358 Q202.3438,462.1545 202.9688,461.5764 L202.9688,464.2952 Z " fill="#000000"/><text fill="#D9B8FF" font-family="Helvetica" font-size="17" lengthAdjust="spacing" textLength="113" x="219" y="464.5398">aws_resource</text><line style="stroke:#000D19;stroke-width:0.5;" x1="186" x2="339" y1="478.5491" y2="478.5491"/><text fill="#D9B8FF" font-family="sans-serif" font-size="14" font-weight="bold" lengthAdjust="spacing" textLength="26" x="196" y="500.5442">arn</text><text fill="#D9B8FF" font-family="sans-serif" font-size="14" lengthAdjust="spacing" textLength="48" x="222" y="500.5442">: string</text></g><!--class resource--><g id="elem_resource"><rect codeLine="31" fill="#3D176E" height="310.7578" id="resource" rx="2.5" ry="2.5" style="stroke:#000D19;stroke-width:0.5;" width="227" x="149" y="7"/><ellipse cx="217.75" cy="26.8945" fill="#ADD1B2" rx="11" ry="11" style="stroke:#181818;stroke-width:1.0;"/><path d="M220.7188,32.5352 Q220.1406,32.832 219.5,32.9727 Q218.8594,33.1289 218.1563,33.1289 Q215.6563,33.1289 214.3281,31.4883 Q213.0156,29.832 213.0156,26.707 Q213.0156,23.582 214.3281,21.9258 Q215.6563,20.2695 218.1563,20.2695 Q218.8594,20.2695 219.5,20.4258 Q220.1563,20.582 220.7188,20.8789 L220.7188,23.5977 Q220.0938,23.0195 219.5,22.7539 Q218.9063,22.4727 218.2813,22.4727 Q216.9375,22.4727 216.25,23.5508 Q215.5625,24.6133 215.5625,26.707 Q215.5625,28.8008 216.25,29.8789 Q216.9375,30.9414 218.2813,30.9414 Q218.9063,30.9414 219.5,30.6758 Q220.0938,30.3945 220.7188,29.8164 L220.7188,32.5352 Z " fill="#000000"/><text fill="#D9B8FF" font-family="Helvetica" font-size="17" lengthAdjust="spacing" textLength="71" x="243.25" y="32.7798">resource</text><line style="stroke:#000D19;stroke-width:0.5;" x1="150" x2="375" y1="46.7891" y2="46.7891"/><text fill="#D9B8FF" font-family="sans-serif" font-size="14" font-weight="bold" lengthAdjust="spacing" textLength="29" x="160" y="68.7842">age</text><text fill="#D9B8FF" font-family="sans-serif" font-size="14" lengthAdjust="spacing" textLength="66" x="189" y="68.7842">: duration</text><text fill="#D9B8FF" font-family="sans-serif" font-size="14" font-weight="bold" lengthAdjust="spacing" textLength="43" x="160" y="95.0811">atime</text><text fill="#D9B8FF" font-family="sans-serif" font-size="14" lengthAdjust="spacing" textLength="70" x="203" y="95.0811">: datetime</text><text fill="#D9B8FF" font-family="sans-serif" font-size="14" font-weight="bold" lengthAdjust="spacing" textLength="43" x="160" y="121.3779">ctime</text><text fill="#D9B8FF" font-family="sans-serif" font-size="14" lengthAdjust="spacing" textLength="70" x="203" y="121.3779">: datetime</text><text fill="#D9B8FF" font-family="sans-serif" font-size="14" font-weight="bold" lengthAdjust="spacing" textLength="14" x="160" y="147.6748">id</text><text fill="#D9B8FF" font-family="sans-serif" font-size="14" lengthAdjust="spacing" textLength="48" x="174" y="147.6748">: string</text><text fill="#D9B8FF" font-family="sans-serif" font-size="14" font-weight="bold" lengthAdjust="spacing" textLength="33" x="160" y="173.9717">kind</text><text fill="#D9B8FF" font-family="sans-serif" font-size="14" lengthAdjust="spacing" textLength="48" x="193" y="173.9717">: string</text><text fill="#D9B8FF" font-family="sans-serif" font-size="14" font-weight="bold" lengthAdjust="spacing" textLength="90" x="160" y="200.2686">last_access</text><text fill="#D9B8FF" font-family="sans-serif" font-size="14" lengthAdjust="spacing" textLength="66" x="250" y="200.2686">: duration</text><text fill="#D9B8FF" font-family="sans-serif" font-size="14" font-weight="bold" lengthAdjust="spacing" textLength="90" x="160" y="226.5654">last_update</text><text fill="#D9B8FF" font-family="sans-serif" font-size="14" lengthAdjust="spacing" textLength="66" x="250" y="226.5654">: duration</text><text fill="#D9B8FF" font-family="sans-serif" font-size="14" font-weight="bold" lengthAdjust="spacing" textLength="48" x="160" y="252.8623">mtime</text><text fill="#D9B8FF" font-family="sans-serif" font-size="14" lengthAdjust="spacing" textLength="70" x="208" y="252.8623">: datetime</text><text fill="#D9B8FF" font-family="sans-serif" font-size="14" font-weight="bold" lengthAdjust="spacing" textLength="43" x="160" y="279.1592">name</text><text fill="#D9B8FF" font-family="sans-serif" font-size="14" lengthAdjust="spacing" textLength="48" x="203" y="279.1592">: string</text><text fill="#D9B8FF" font-family="sans-serif" font-size="14" font-weight="bold" lengthAdjust="spacing" textLength="34" x="160" y="305.4561">tags</text><text fill="#D9B8FF" font-family="sans-serif" font-size="14" lengthAdjust="spacing" textLength="171" x="194" y="305.4561">: dictionary[string, string]</text></g><!--reverse link aws_resource to aws_cloudfront_origin_access_control--><g id="link_aws_resource_aws_cloudfront_origin_access_control"><path codeLine="43" d="M262.5,533.98 C262.5,563.94 262.5,601.02 262.5,633.35 " fill="none" id="aws_resource-backto-aws_cloudfront_origin_access_control" style="stroke:#FFAF37;stroke-width:2.0;"/><polygon fill="none" points="255.5,534.13,262.5,514.13,269.5,534.13,255.5,534.13" style="stroke:#FFAF37;stroke-width:2.0;"/></g><!--reverse link resource to aws_resource--><g id="link_resource_aws_resource"><path codeLine="44" d="M262.5,338.97 C262.5,376.78 262.5,413 262.5,438.51 " fill="none" id="resource-backto-aws_resource" style="stroke:#FFAF37;stroke-width:2.0;"/><polygon fill="none" points="255.5,339.18,262.5,319.18,269.5,339.18,255.5,339.18" style="stroke:#FFAF37;stroke-width:2.0;"/></g><!--SRC=[bP9DRzim38Rl-HK2UWiM86cnfHbsQGCCswKOrjs6mM0asX5YYmP5DyW-_lkaE1taZwJTpNZVX-HBMbjhK65Loq5LM6sG_SJlhAk1eL9tpBHVKqcihl8Syfjbt_n8Jbu47g12zGdB9nIheKzysrgzS-YzkawiUz2xWgbnfcql3Cu72vqarBe4x-z4s6uQmIICMMrkyxnFzfjUtPZ5yXqEC6A3V4BcyxbPhFh8YwCkxlsFUBG_KItIepsGu23cOCIHkfWo4ad8mQBF_jcCNy0OwmhrDj6-jfdO8NVqnoqOsaSwXzAdOxmW8ycXnlLWArpTcdmv2dy-1-juEGLxd-cI6fDpM24ZjeLr6MWTNb6cWyHKgb-JwNJKoGnwpROMIsuwVH_6SeX-bhwenh2lwE5juOAVRN0BJvRuFqfg9Y5DPLBo9pa3ewU6DHxN1NOZM1SfZdbDmn3tZuhOgjL0C7u7JOzerdHIXx_M5S8iEItHct1qcZhswZdLo1m7LVUa0aNRqUfO1dputdflJioFi6hd5Xz-psQpLxsIoKZDi_GN]--></g></svg>

<svg xmlns="http://www.w3.org/2000/svg" width="525" height="793" preserveAspectRatio="none" style="width:525px;height:793px"><rect width="511" height="152.977" x="7" y="633.84" fill="#3D176E" rx="2.5" ry="2.5" style="stroke:#000d19;stroke-width:.5"/><circle cx="97.25" cy="653.735" r="11" fill="#ADD1B2" style="stroke:#181818;stroke-width:1"/><path d="M100.219 659.375q-.578.297-1.219.438-.64.156-1.344.156-2.5 0-3.828-1.64-1.312-1.657-1.312-4.782t1.312-4.781q1.328-1.656 3.828-1.656.703 0 1.344.156.656.156 1.219.453v2.719q-.625-.578-1.219-.844-.594-.281-1.219-.281-1.344 0-2.031 1.078-.688 1.062-.688 3.156 0 2.094.688 3.172.688 1.062 2.031 1.062.625 0 1.219-.265.594-.281 1.219-.86v2.72Z"/><text x="122.75" y="659.62" fill="#D9B8FF" font-family="Helvetica" font-size="17" textLength="312">aws_cloudfront_origin_access_control</text><path d="M8 673.629h509" style="stroke:#000d19;stroke-width:.5"/><text x="18" y="695.624" fill="#D9B8FF" font-family="sans-serif" font-size="14" font-weight="bold" textLength="266">origin_access_control_description</text><text x="284" y="695.624" fill="#D9B8FF" font-family="sans-serif" font-size="14" textLength="48">: string</text><text x="18" y="721.921" fill="#D9B8FF" font-family="sans-serif" font-size="14" font-weight="bold" textLength="441">origin_access_control_origin_access_control_origin_type</text><text x="459" y="721.921" fill="#D9B8FF" font-family="sans-serif" font-size="14" textLength="48">: string</text><text x="18" y="748.218" fill="#D9B8FF" font-family="sans-serif" font-size="14" font-weight="bold" textLength="310">origin_access_control_signing_behavior</text><text x="328" y="748.218" fill="#D9B8FF" font-family="sans-serif" font-size="14" textLength="48">: string</text><text x="18" y="774.515" fill="#D9B8FF" font-family="sans-serif" font-size="14" font-weight="bold" textLength="307">origin_access_control_signing_protocol</text><text x="325" y="774.515" fill="#D9B8FF" font-family="sans-serif" font-size="14" textLength="48">: string</text><rect width="155" height="74.086" x="185" y="438.76" fill="#3D176E" rx="2.5" ry="2.5" style="stroke:#000d19;stroke-width:.5"/><circle cx="200" cy="458.654" r="11" fill="#ADD1B2" style="stroke:#181818;stroke-width:1"/><path d="M202.969 464.295q-.578.297-1.219.438-.64.156-1.344.156-2.5 0-3.828-1.64-1.312-1.657-1.312-4.782t1.312-4.781q1.328-1.656 3.828-1.656.703 0 1.344.156.656.156 1.219.453v2.719q-.625-.579-1.219-.844-.594-.281-1.219-.281-1.344 0-2.031 1.078-.688 1.062-.688 3.156 0 2.094.688 3.172.688 1.062 2.031 1.062.625 0 1.219-.265.594-.281 1.219-.86v2.72Z"/><text x="219" y="464.54" fill="#D9B8FF" font-family="Helvetica" font-size="17" textLength="113">aws_resource</text><path d="M186 478.549h153" style="stroke:#000d19;stroke-width:.5"/><text x="196" y="500.544" fill="#D9B8FF" font-family="sans-serif" font-size="14" font-weight="bold" textLength="26">arn</text><text x="222" y="500.544" fill="#D9B8FF" font-family="sans-serif" font-size="14" textLength="48">: string</text><rect width="227" height="310.758" x="149" y="7" fill="#3D176E" rx="2.5" ry="2.5" style="stroke:#000d19;stroke-width:.5"/><circle cx="217.75" cy="26.895" r="11" fill="#ADD1B2" style="stroke:#181818;stroke-width:1"/><path d="M220.719 32.535q-.578.297-1.219.438-.64.156-1.344.156-2.5 0-3.828-1.64-1.312-1.657-1.312-4.782t1.312-4.781q1.328-1.656 3.828-1.656.703 0 1.344.156.656.156 1.219.453v2.719q-.625-.578-1.219-.844-.594-.281-1.219-.281-1.344 0-2.031 1.078-.688 1.062-.688 3.156 0 2.094.688 3.172.688 1.062 2.031 1.062.625 0 1.219-.265.594-.281 1.219-.86v2.72Z"/><text x="243.25" y="32.78" fill="#D9B8FF" font-family="Helvetica" font-size="17" textLength="71">resource</text><path d="M150 46.789h225" style="stroke:#000d19;stroke-width:.5"/><text x="160" y="68.784" fill="#D9B8FF" font-family="sans-serif" font-size="14" font-weight="bold" textLength="29">age</text><text x="189" y="68.784" fill="#D9B8FF" font-family="sans-serif" font-size="14" textLength="66">: duration</text><text x="160" y="95.081" fill="#D9B8FF" font-family="sans-serif" font-size="14" font-weight="bold" textLength="43">atime</text><text x="203" y="95.081" fill="#D9B8FF" font-family="sans-serif" font-size="14" textLength="70">: datetime</text><text x="160" y="121.378" fill="#D9B8FF" font-family="sans-serif" font-size="14" font-weight="bold" textLength="43">ctime</text><text x="203" y="121.378" fill="#D9B8FF" font-family="sans-serif" font-size="14" textLength="70">: datetime</text><text x="160" y="147.675" fill="#D9B8FF" font-family="sans-serif" font-size="14" font-weight="bold" textLength="14">id</text><text x="174" y="147.675" fill="#D9B8FF" font-family="sans-serif" font-size="14" textLength="48">: string</text><text x="160" y="173.972" fill="#D9B8FF" font-family="sans-serif" font-size="14" font-weight="bold" textLength="33">kind</text><text x="193" y="173.972" fill="#D9B8FF" font-family="sans-serif" font-size="14" textLength="48">: string</text><text x="160" y="200.269" fill="#D9B8FF" font-family="sans-serif" font-size="14" font-weight="bold" textLength="90">last_access</text><text x="250" y="200.269" fill="#D9B8FF" font-family="sans-serif" font-size="14" textLength="66">: duration</text><text x="160" y="226.565" fill="#D9B8FF" font-family="sans-serif" font-size="14" font-weight="bold" textLength="90">last_update</text><text x="250" y="226.565" fill="#D9B8FF" font-family="sans-serif" font-size="14" textLength="66">: duration</text><text x="160" y="252.862" fill="#D9B8FF" font-family="sans-serif" font-size="14" font-weight="bold" textLength="48">mtime</text><text x="208" y="252.862" fill="#D9B8FF" font-family="sans-serif" font-size="14" textLength="70">: datetime</text><text x="160" y="279.159" fill="#D9B8FF" font-family="sans-serif" font-size="14" font-weight="bold" textLength="43">name</text><text x="203" y="279.159" fill="#D9B8FF" font-family="sans-serif" font-size="14" textLength="48">: string</text><text x="160" y="305.456" fill="#D9B8FF" font-family="sans-serif" font-size="14" font-weight="bold" textLength="34">tags</text><text x="194" y="305.456" fill="#D9B8FF" font-family="sans-serif" font-size="14" textLength="171">: dictionary[string, string]</text><path fill="none" d="M262.5 533.98v99.37m-7-99.22 7-20 7 20h-14zm7-195.16v99.54m-7-99.33 7-20 7 20h-14z" style="stroke:#ffaf37;stroke-width:2"/></svg>
